workflow-templates/docker.svg

<svg width="1316" height="1126" xmlns="http://www.w3.org/2000/svg">

 <g>
  <title>Layer 1</title>
  <path id="svg_2" fill="#2597ed" d="m669.144,1.02771c-5.934,3.46484 -4.144,14.25929 -4.144,19.97229l0,51c0,5.91 -1.637,14.9205 2.514,19.7716c4.672,5.4594 16.058,3.2284 22.486,3.2284l54,0c6.251,0 16.312,1.8881 21.942,-1.1791c6.603,-3.5974 5.058,-13.5677 5.058,-19.8209l0,-52c0,-5.7141 1.611,-15.04822 -2.564,-19.68213c-4.31,-4.78345 -17.53,-2.31787 -23.436,-2.31787l-54,0c-5.939,0 -16.606,-2.0376 -21.856,1.02771m-245.1,112.71429c-7.237,2.95 -5.044,14.053 -5.044,20.258l0,52c0,5.615 -1.838,15.276 2.434,19.682c4.605,4.75 17.455,2.318 23.566,2.318l51,0c6.684,0 16.689,1.861 22.956,-0.603c7.24,-2.848 5.044,-14.281 5.044,-20.397l0,-51c0,-5.557 1.8,-15.084 -1.742,-19.772c-4.291,-5.678 -16.994,-3.228 -23.258,-3.228l-52,0c-6.729,0 -16.657,-1.825 -22.956,0.742m124,0c-7.237,2.949 -5.044,14.053 -5.044,20.258l0,51c0,5.488 -1.853,15.229 1.603,19.852c4.223,5.648 17.169,3.148 23.397,3.148l52,0c6.684,0 16.689,1.861 22.956,-0.603c7.24,-2.848 5.044,-14.281 5.044,-20.397l0,-51c0,-5.557 1.8,-15.084 -1.742,-19.772c-4.291,-5.678 -16.994,-3.228 -23.258,-3.228l-52,0c-6.729,0 -16.657,-1.825 -22.956,0.742m122.974,0c-7.542,2.997 -6.018,12.764 -6.018,19.258l0,52c0,5.843 -1.787,15.884 2.564,20.566c4.511,4.854 17.379,2.434 23.436,2.434l52,0c6.617,0 16.738,1.89 22.892,-0.742c6.945,-2.971 5.108,-14.27 5.108,-20.258l0,-50c0,-6.152 1.66,-15.655 -2.564,-20.772c-4.641,-5.622 -16.935,-3.228 -23.436,-3.228l-51,0c-6.784,0 -16.61,-1.789 -22.982,0.742m323.982,24.258c-33.409,54.137 -59.703,126.423 -18,185c-63.717,26.141 -136.383,17 -204,17l-368,0l-118,0c-17.239,0 -39.794,-3.828 -56,2.763c-17.271,7.024 -19,22.983 -19,39.237c0,31.804 3.759,63.793 10,95c14.805,74.035 49.542,151.146 115,193.308c35.392,22.796 77.814,34.657 119,41.611c174.806,29.517 376.514,-10.242 497.714,-147.919c31.112,-35.34 56.996,-74.916 78.036,-117c7.02,-14.028 13.71,-28.477 19.65,-43c2.85,-6.986 5.24,-18.057 10.3,-23.682c3.24,-3.598 9.96,-2.318 14.3,-2.318c11.44,0 22.77,-1.189 34,-3.449c36.55,-7.354 68.93,-27.979 90.28,-58.551c5.88,-8.422 16.32,-24.19 15.88,-34.961c-0.34,-8.626 -20.29,-17.115 -27.16,-19.835c-23.29,-9.228 -47.23,-11.214 -72,-11.204c-7.69,0.003 -26.27,5.813 -32.68,1.933c-3.29,-1.987 -3.17,-8.585 -4.05,-11.933c-2.63,-9.955 -5.94,-19.77 -10.52,-29c-14.39,-28.983 -42.21,-63.607 -74.75,-73m-693.811,89.742c-6.461,2.865 -4.189,14.61 -4.189,20.258l0,51c0,5.557 -1.8,15.084 1.742,19.772c4.291,5.678 16.994,3.228 23.258,3.228l54,0c6.166,0 16.374,1.927 21.891,-1.179c6.164,-3.47 4.109,-13.926 4.109,-19.821l0,-52c0,-5.615 1.838,-15.276 -2.434,-19.682c-4.605,-4.75 -17.455,-2.318 -23.566,-2.318l-52,0c-6.524,0 -16.776,-1.934 -22.811,0.742m121.87,0.286c-6.207,3.399 -4.059,14.089 -4.059,19.972l0,51c0,5.557 -1.8,15.084 1.742,19.772c4.291,5.678 16.994,3.228 23.258,3.228l54,0c6.166,0 16.374,1.927 21.891,-1.179c6.164,-3.47 4.109,-13.926 4.109,-19.821l0,-52c0,-5.489 1.92,-15.444 -2.318,-19.682c-4.616,-4.616 -16.656,-2.318 -22.682,-2.318l-54,0c-6.107,0 -16.468,-1.97 -21.941,1.028m124,0c-6.207,3.399 -4.059,14.089 -4.059,19.972l0,51c0,5.557 -1.8,15.084 1.742,19.772c4.291,5.678 16.994,3.228 23.258,3.228l54,0c6.166,0 16.374,1.927 21.891,-1.179c6.164,-3.47 4.109,-13.926 4.109,-19.821l0,-52c0,-5.489 1.92,-15.444 -2.318,-19.682c-4.616,-4.616 -16.656,-2.318 -22.682,-2.318l-54,0c-6.107,0 -16.468,-1.97 -21.941,1.028m122.085,0c-5.934,3.465 -4.144,14.259 -4.144,19.972l0,51c0,5.91 -1.637,14.921 2.514,19.772c4.672,5.459 16.058,3.228 22.486,3.228l54,0c6.251,0 16.312,1.888 21.942,-1.179c6.603,-3.597 5.058,-13.568 5.058,-19.821l0,-52c0,-5.638 1.639,-15.044 -2.564,-19.566c-4.511,-4.854 -17.379,-2.434 -23.436,-2.434l-54,0c-5.939,0 -16.606,-2.038 -21.856,1.028m123.965,0c-6.161,3.468 -4.109,14.1 -4.109,19.972l0,51c0,5.557 -1.8,15.084 1.742,19.772c4.291,5.678 16.994,3.228 23.258,3.228l54,0c6.166,0 16.374,1.927 21.891,-1.179c6.324,-3.56 4.109,-14.77 4.109,-20.821l0,-50c0,-5.488 1.853,-15.229 -1.603,-19.852c-4.223,-5.648 -17.169,-3.148 -23.397,-3.148l-54,0c-6.033,0 -16.515,-1.998 -21.891,1.028m-612.109,697.972c-50.818,-43.97 -133.3737,-24.762 -166.5471,31c-25.1257,42.235 -17.77216,98.09 14.7169,134c11.2039,12.38 26.1144,22.58 41.8302,28.3c60.163,21.94 129.718,-10.01 148.279,-72.3c5.327,-17.88 4.721,-36.55 4.721,-55l0,-71l0,-81c0,-11.462 0.773,-24.694 -11.004,-30.95c-12.254,-6.51 -28.906,0.077 -31.528,13.95c-2.093,11.068 -0.468,23.751 -0.468,35l0,68m625,68c19.529,-9.236 38.024,-23.684 56,-35.667c9.691,-6.46 21.749,-12.015 29.891,-20.426c12.013,-12.41 2.508,-33.92 -13.891,-35.719c-14.122,-1.549 -28.995,12.554 -40,19.809c-30.477,20.092 -62.476,38.538 -92,60.003l0,-76l0,-57c0,-9.138 1.72,-20.312 -1.562,-29c-6.613,-17.504 -33.263,-17.504 -39.876,0c-2.78,7.359 -1.562,16.277 -1.562,24l0,44l0,153l0,54c0,9.95 -0.533,19.72 8.015,26.61c12.27,9.89 31.593,2.86 34.517,-12.61c4.411,-23.33 -5.243,-50.08 0.786,-72.96c1.29,-4.9 18.024,-17.34 23.243,-16.31c2.752,0.54 4.883,4.34 6.606,6.27l16.999,19c16.941,18.97 33.472,38.39 50.809,57c6.898,7.4 13.473,18.51 23.025,22.63c19.909,8.59 36.885,-13.96 26.637,-31.63c-7.453,-12.85 -20.575,-23.85 -30.352,-35c-18.795,-21.43 -37.159,-43.82 -57.285,-64m-458,-91.576c-27.395,3.599 -50.683,11.912 -70.961,31.665c-9.707,9.456 -18.271,21.433 -23.612,33.911c-33.444,78.14 29.54,168 115.573,157.71c17.555,-2.1 34.246,-7.49 49,-17.38c76.901,-51.56 61.856,-176.29 -30,-202.036c-12.494,-3.502 -27.066,-5.569 -40,-3.87m244,0c-19.868,2.61 -38.342,6.777 -55,18.731c-70.209,50.386 -62.456,161.435 19,196.555c14.304,6.17 29.553,8.29 45,8.29c14.346,0 28.614,-2.03 42,-7.45c16.837,-6.82 54.106,-30.09 30.895,-51.22c-17.397,-15.84 -35.807,7.07 -51.895,12.59c-30.696,10.53 -64.514,-3.56 -81.188,-30.92c-28.528,-46.81 12.118,-110.867 67.188,-103.711c9.904,1.287 19.494,4.994 28,10.175c10.932,6.658 21.607,16.884 34.999,8.541c16.787,-10.457 9.738,-30.024 -2.999,-39.769c-20.776,-15.896 -49.712,-25.265 -76,-21.812m355,133.576l127,0c13.69,0 36.35,4.34 46.47,-7.19c5.31,-6.04 4.53,-13.33 4.53,-20.81c-0.01,-17.845 -5.49,-35.714 -14.6,-51c-28.29,-47.457 -91.53,-68.605 -142.4,-45.688c-83.974,37.829 -89.746,161.288 -6,203.438c11.692,5.89 24.849,10.25 38,11.16c29.44,2.03 57.01,-3.54 81,-21.39c11.62,-8.65 22.13,-25.23 9.79,-38.42c-18.15,-19.39 -41.87,10.42 -59.79,15.47c-37.054,10.44 -68.796,-13.48 -84,-45.57m243,-111c-1.67,-21.039 -30.32,-33.723 -41.08,-11c-5.98,12.622 -1.92,34.21 -1.92,48l0,112c0,14.57 -5.1,39.49 9.04,48.87c13.33,8.84 30.63,0.06 33.34,-14.87c7.87,-43.32 -14.05,-96.95 14.38,-135c14.35,-19.204 39.28,-30.656 63.24,-27.714c10.43,1.282 21.51,8.137 32,6.388c13.24,-2.206 19.47,-15.188 16.61,-27.674c-3.13,-13.604 -21.92,-18.149 -33.61,-20.08c-34.35,-5.677 -62.92,3.153 -92,21.08z"/>
  <path id="svg_4" fill="#2597ed" d="m1235,1095.56c-18.8,4.9 -10.94,33.48 8,28.91c19.21,-4.64 11.11,-33.9 -8,-28.91z"/>
  <path id="svg_5" fill="#010101" d="m1246,1119l0,-1l-9,-6l0,6l-4,0c0,-3.87 -1.21,-10.33 1.03,-13.68c2.28,-3.42 9.04,-2.71 10.82,0.91c1.38,2.82 0.63,8.47 1.15,11.77c9.36,-6.41 -0.97,-21.94 -10.98,-16.82c-13.94,7.12 -2.18,23.61 10.98,18.82m-8,-10l3,-3l-3,3z"/>
 </g>
</svg>

<?xml version="1.0" standalone="yes"?>
<svg xmlns="http://www.w3.org/2000/svg" width="1316" height="1126">
<path style="fill:#010101; stroke:none;" d="M0 0L0 998L1 998C3.37505 942.826 62.7467 899.751 115 902.039C140.589 903.16 159.767 912.778 181 926L181 858C181 847.066 179.434 834.759 181.468 824C184.099 810.079 200.615 802.176 212.996 809.613C223.878 816.15 224 827.721 224 839L224 905C224 978.256 241.217 1074.54 162 1114.25C150.627 1119.95 137.879 1124.73 125 1125L125 1126L343 1126L343 1125C280.337 1124.48 236.482 1054.33 245.439 997C253.764 943.723 301.03 902.625 355 902.004C406.452 901.412 454.441 938.499 465.576 989C478.75 1048.75 436.548 1123.63 370 1125L370 1126L587 1126L587 1125C522.262 1123.66 478.58 1050.99 490.449 992C503.247 928.39 569.217 889.681 631 906.155C649.177 911.002 694.773 931.924 677.348 956.999C660.764 980.864 638.363 953.237 620 947.721C590.583 938.886 558.226 951.291 541.698 977C513.341 1021.11 546.971 1087.7 602 1083.82C612.63 1083.06 623.67 1080.93 633 1075.54C643.657 1069.37 653.505 1058.12 667 1063.61C681.213 1069.39 683.832 1087.24 673.895 1097.99C659.724 1113.31 634.905 1124.57 614 1125L614 1126L718 1126L718 1125C702.864 1118.34 703 1105.32 703 1091L703 1042L703 889L703 845C703 837.275 701.785 828.362 704.562 821C711.511 802.586 737.489 802.586 744.438 821C747.618 829.428 746 840.141 746 849L746 905L746 982C777.548 965.206 806.945 942.666 837 923.308C847.794 916.355 862.485 902.087 876 902.184C892.927 902.305 903.7 924.336 891.891 936.96C884.571 944.786 873.854 949.794 865 955.667C845.46 968.63 825.441 980.895 806 994C829.949 1028.03 862.812 1057.39 889.934 1089C900.187 1100.95 898.485 1119.53 882 1125L882 1126L997 1126L997 1125C942.68 1122.66 898.79 1063.83 901.039 1012C903.271 960.586 940.389 913.75 992 904.424C1042.85 895.237 1095.93 921.744 1116.57 970C1122.92 984.853 1132.51 1015.19 1119.67 1028.81C1108.82 1040.33 1086.27 1036 1072 1036L947 1036C959.575 1072.93 1001.26 1093.4 1038 1079.57C1052.34 1074.18 1066.29 1054.16 1083 1061.37C1097.15 1067.47 1099.61 1084.95 1089.81 1095.99C1075.97 1111.57 1050.94 1124.1 1030 1125L1030 1126L1162 1126L1162 1125C1142.26 1118.7 1147 1094.13 1147 1078L1147 966C1147 951.438 1142.94 929.57 1148.48 916C1158.4 891.727 1187.21 903.421 1190 925C1199.34 921.071 1207.55 914.467 1217 910.427C1237.09 901.836 1259.62 900.387 1281 903.92C1294.01 906.07 1308.5 910.473 1315 923L1316 923L1316 0L767 0C777.001 17.9114 771 49.7874 771 70C771 77.2695 772.978 88.5198 765.942 93.2577C761.64 96.1548 754.924 95 750 95L714 95L682 95C677.159 94.9998 671.96 95.5674 668.279 91.7716C664.023 87.3842 665 80.5896 665 75L665 37C665 24.7043 662.833 11.0441 669 0L0 0z"/>
<path style="fill:#2597ed; stroke:none;" d="M669.144 1.02771C663.21 4.49255 665 15.287 665 21L665 72C665 77.91 663.363 86.9205 667.514 91.7716C672.186 97.231 683.572 95 690 95L744 95C750.251 95 760.312 96.8881 765.942 93.8209C772.545 90.2235 771 80.2532 771 74L771 22C771 16.2859 772.611 6.95178 768.436 2.31787C764.126 -2.46558 750.906 0 745 0L691 0C685.061 0 674.394 -2.0376 669.144 1.02771M424.044 113.742C416.807 116.692 419 127.795 419 134L419 186C419 191.615 417.162 201.276 421.434 205.682C426.039 210.432 438.889 208 445 208L496 208C502.684 208 512.689 209.861 518.956 207.397C526.196 204.549 524 193.116 524 187L524 136C524 130.443 525.8 120.916 522.258 116.228C517.967 110.55 505.264 113 499 113L447 113C440.271 113 430.343 111.175 424.044 113.742M548.044 113.742C540.807 116.691 543 127.795 543 134L543 185C543 190.488 541.147 200.229 544.603 204.852C548.826 210.5 561.772 208 568 208L620 208C626.684 208 636.689 209.861 642.956 207.397C650.196 204.549 648 193.116 648 187L648 136C648 130.443 649.8 120.916 646.258 116.228C641.967 110.55 629.264 113 623 113L571 113C564.271 113 554.343 111.175 548.044 113.742M671.018 113.742C663.476 116.739 665 126.506 665 133L665 185C665 190.843 663.213 200.884 667.564 205.566C672.075 210.42 684.943 208 691 208L743 208C749.617 208 759.738 209.89 765.892 207.258C772.837 204.287 771 192.988 771 187L771 137C771 130.848 772.66 121.345 768.436 116.228C763.795 110.606 751.501 113 745 113L694 113C687.216 113 677.39 111.211 671.018 113.742M995 138C961.591 192.137 935.297 264.423 977 323C913.283 349.141 840.617 340 773 340L405 340L287 340C269.761 340 247.206 336.172 231 342.763C213.729 349.787 212 365.746 212 382C212 413.804 215.759 445.793 222 477C236.805 551.035 271.542 628.146 337 670.308C372.392 693.104 414.814 704.965 456 711.919C630.806 741.436 832.514 701.677 953.714 564C984.826 528.66 1010.71 489.084 1031.75 447C1038.77 432.972 1045.46 418.523 1051.4 404C1054.25 397.014 1056.64 385.943 1061.7 380.318C1064.94 376.72 1071.66 378 1076 378C1087.44 378 1098.77 376.811 1110 374.551C1146.55 367.197 1178.93 346.572 1200.28 316C1206.16 307.578 1216.6 291.81 1216.16 281.039C1215.82 272.413 1195.87 263.924 1189 261.204C1165.71 251.976 1141.77 249.99 1117 250C1109.31 250.003 1090.73 255.813 1084.32 251.933C1081.03 249.946 1081.15 243.348 1080.27 240C1077.64 230.045 1074.33 220.23 1069.75 211C1055.36 182.017 1027.54 147.393 995 138M301.189 227.742C294.728 230.607 297 242.352 297 248L297 299C297 304.557 295.2 314.084 298.742 318.772C303.033 324.45 315.736 322 322 322L376 322C382.166 322 392.374 323.927 397.891 320.821C404.055 317.351 402 306.895 402 301L402 249C402 243.385 403.838 233.724 399.566 229.318C394.961 224.568 382.111 227 376 227L324 227C317.476 227 307.224 225.066 301.189 227.742M423.059 228.028C416.852 231.427 419 242.117 419 248L419 299C419 304.557 417.2 314.084 420.742 318.772C425.033 324.45 437.736 322 444 322L498 322C504.166 322 514.374 323.927 519.891 320.821C526.055 317.351 524 306.895 524 301L524 249C524 243.511 525.92 233.556 521.682 229.318C517.066 224.702 505.026 227 499 227L445 227C438.893 227 428.532 225.03 423.059 228.028M547.059 228.028C540.852 231.427 543 242.117 543 248L543 299C543 304.557 541.2 314.084 544.742 318.772C549.033 324.45 561.736 322 568 322L622 322C628.166 322 638.374 323.927 643.891 320.821C650.055 317.351 648 306.895 648 301L648 249C648 243.511 649.92 233.556 645.682 229.318C641.066 224.702 629.026 227 623 227L569 227C562.893 227 552.532 225.03 547.059 228.028M669.144 228.028C663.21 231.493 665 242.287 665 248L665 299C665 304.91 663.363 313.921 667.514 318.772C672.186 324.231 683.572 322 690 322L744 322C750.251 322 760.312 323.888 765.942 320.821C772.545 317.224 771 307.253 771 301L771 249C771 243.362 772.639 233.956 768.436 229.434C763.925 224.58 751.057 227 745 227L691 227C685.061 227 674.394 224.962 669.144 228.028M793.109 228.028C786.948 231.496 789 242.128 789 248L789 299C789 304.557 787.2 314.084 790.742 318.772C795.033 324.45 807.736 322 814 322L868 322C874.166 322 884.374 323.927 889.891 320.821C896.215 317.261 894 306.051 894 300L894 250C894 244.512 895.853 234.771 892.397 230.148C888.174 224.5 875.228 227 869 227L815 227C808.967 227 798.485 225.002 793.109 228.028M181 926C130.182 882.03 47.6263 901.238 14.4529 957C-10.6728 999.235 -3.31926 1055.09 29.1698 1091C40.3737 1103.38 55.2842 1113.58 71 1119.3C131.163 1141.24 200.718 1109.29 219.279 1047C224.606 1029.12 224 1010.45 224 992L224 921L224 840C224 828.538 224.773 815.306 212.996 809.05C200.742 802.54 184.09 809.127 181.468 823C179.375 834.068 181 846.751 181 858L181 926M806 994C825.529 984.764 844.024 970.316 862 958.333C871.691 951.873 883.749 946.318 891.891 937.907C903.904 925.497 894.399 903.987 878 902.188C863.878 900.639 849.005 914.742 838 921.997C807.523 942.089 775.524 960.535 746 982L746 906L746 849C746 839.862 747.72 828.688 744.438 820C737.825 802.496 711.175 802.496 704.562 820C701.782 827.359 703 836.277 703 844L703 888L703 1041L703 1095C703 1104.95 702.467 1114.72 711.015 1121.61C723.285 1131.5 742.608 1124.47 745.532 1109C749.943 1085.67 740.289 1058.92 746.318 1036.04C747.608 1031.14 764.342 1018.7 769.561 1019.73C772.313 1020.27 774.444 1024.07 776.167 1026L793.166 1045C810.107 1063.97 826.638 1083.39 843.975 1102C850.873 1109.4 857.448 1120.51 867 1124.63C886.909 1133.22 903.885 1110.67 893.637 1093C886.184 1080.15 873.062 1069.15 863.285 1058C844.49 1036.57 826.126 1014.18 806 994M348 902.424C320.605 906.023 297.317 914.336 277.039 934.089C267.332 943.545 258.768 955.522 253.427 968C219.983 1046.14 282.967 1136 369 1125.71C386.555 1123.61 403.246 1118.22 418 1108.33C494.901 1056.77 479.856 932.04 388 906.294C375.506 902.792 360.934 900.725 348 902.424M592 902.424C572.132 905.034 553.658 909.201 537 921.155C466.791 971.541 474.544 1082.59 556 1117.71C570.304 1123.88 585.553 1126 601 1126C615.346 1126 629.614 1123.97 643 1118.55C659.837 1111.73 697.106 1088.46 673.895 1067.33C656.498 1051.49 638.088 1074.4 622 1079.92C591.304 1090.45 557.486 1076.36 540.812 1049C512.284 1002.19 552.93 938.133 608 945.289C617.904 946.576 627.494 950.283 636 955.464C646.932 962.122 657.607 972.348 670.999 964.005C687.786 953.548 680.737 933.981 668 924.236C647.224 908.34 618.288 898.971 592 902.424M947 1036L1074 1036C1087.69 1036 1110.35 1040.34 1120.47 1028.81C1125.78 1022.77 1125 1015.48 1125 1008C1124.99 990.155 1119.51 972.286 1110.4 957C1082.11 909.543 1018.87 888.395 968 911.312C884.026 949.141 878.254 1072.6 962 1114.75C973.692 1120.64 986.849 1125 1000 1125.91C1029.44 1127.94 1057.01 1122.37 1081 1104.52C1092.62 1095.87 1103.13 1079.29 1090.79 1066.1C1072.64 1046.71 1048.92 1076.52 1031 1081.57C993.946 1092.01 962.204 1068.09 947 1036M1190 925C1188.33 903.961 1159.68 891.277 1148.92 914C1142.94 926.622 1147 948.21 1147 962L1147 1074C1147 1088.57 1141.9 1113.49 1156.04 1122.87C1169.37 1131.71 1186.67 1122.93 1189.38 1108C1197.25 1064.68 1175.33 1011.05 1203.76 973C1218.11 953.796 1243.04 942.344 1267 945.286C1277.43 946.568 1288.51 953.423 1299 951.674C1312.24 949.468 1318.47 936.486 1315.61 924C1312.48 910.396 1293.69 905.851 1282 903.92C1247.65 898.243 1219.08 907.073 1190 925z"/>
<path style="fill:#010101; stroke:none;" d="M1315 937C1312.28 945.51 1304.26 952.164 1295 951.867C1287.88 951.638 1280.99 947.574 1274 946.261C1255.67 942.817 1236.78 945.968 1221 956.09C1181.09 981.688 1190 1031.37 1190 1072C1190 1089.23 1195.56 1118.6 1174 1125L1174 1126L1316 1126L1316 993L1316 955L1315 937M102 945.439C92.0671 946.99 82.438 950.387 74 955.865C66.1958 960.931 59.5649 967.274 54.3596 975C20.5538 1025.18 63.7767 1091.45 123 1082.7C132.284 1081.33 141.132 1077.57 149 1072.56C209.748 1033.89 173.927 934.205 102 945.439M347 945.428C337.018 946.858 327.509 950.228 319 955.698C310.977 960.856 304.483 967.165 299.039 975C264.613 1024.55 308.787 1090.97 367 1082.71C376.261 1081.4 385.072 1077.86 393 1072.93C454.726 1034.56 419.225 935.081 347 945.428M947 993L1079 993C1077.36 982.068 1069.67 972.535 1062 965.015C1025.52 929.267 963.24 944.997 947 993M731 1125L731 1126L869 1126C843.623 1104.65 822.219 1077.01 800.285 1052C792.373 1042.98 781.644 1025.14 770.911 1019.83C765.978 1017.39 749.614 1029.02 747.028 1033.33C744.178 1038.07 746 1047.61 746 1053C746 1074.1 754.577 1114.63 731 1125M0 1030L0 1126L98 1126L98 1125C61.6933 1124.25 26.4549 1095.29 10.8086 1064C5.35004 1053.08 4.66761 1040.82 0 1030z"/>
<path style="fill:#2597ed; stroke:none;" d="M1235 1095.56C1216.2 1100.46 1224.06 1129.04 1243 1124.47C1262.21 1119.83 1254.11 1090.57 1235 1095.56z"/>
<path style="fill:#010101; stroke:none;" d="M1246 1119L1246 1118L1237 1112L1237 1118L1233 1118C1233 1114.13 1231.79 1107.67 1234.03 1104.32C1236.31 1100.9 1243.07 1101.61 1244.85 1105.23C1246.23 1108.05 1245.48 1113.7 1246 1117C1255.36 1110.59 1245.03 1095.06 1235.02 1100.18C1221.08 1107.3 1232.84 1123.79 1246 1119M1238 1109L1241 1106L1238 1109z"/>
</svg>
